icons/plexis/48/syncthing-gtk.svg

<svg viewBox="0 0 48 48" xmlns="http://www.w3.org/2000/svg" xmlns:xlink="http://www.w3.org/1999/xlink">
  <linearGradient id="a" gradientTransform="matrix(0 -1 1 0 -.0000015 47.999998)" gradientUnits="userSpaceOnUse" x1="1" x2="47">
    <stop offset="0" stop-color="#24b2da"/>
    <stop offset="1" stop-color="#34b8de"/>
  </linearGradient>
  <path d="m47 24c0 22.703-.297 23-23 23-22.703 0-23-.297-23-23 0-22.703.297-23 23-23 22.703 0 23 .297 23 23z" fill="url(#a)"/>
  <path d="m25 11a14 14 0 0 0-14 14 14 14 0 0 0  .08 1.447 2.5 2.5 0 0 0-1.08 2.053 2.5 2.5 0 0 0  2.365 2.492 14 14 0 0 0  12.635 8.008 14 14 0 0 0  6.74-1.73 2.5 2.5 0 0 0  1.76.73 2.5 2.5 0 0 0  2.5-2.5 2.5 2.5 0 0 0-.408-1.37 14 14 0 0 0  3.408-9.13 14 14 0 0 0-.568-3.92 2.5 2.5 0 0 0  .568-1.58 2.5 2.5 0 0 0-2.5-2.5 2.5 2.5 0 0 0-.018 0 14 14 0 0 0-11.482-6m0 2a12 12 0 0 1 9.623 4.852 2.5 2.5 0 0 0-.623 1.648 2.5 2.5 0 0 0  .084.633l-5.332 4.205a2.5 2.5 0 0 0-1.252-.338 2.5 2.5 0 0 0-2.43 1.916l-10.375 1.393a2.5 2.5 0 0 0-1.645-1.249 12 12 0 0 1-.05-1.06 12 12 0 0 1  12-12m10.322 8.703a2.5 2.5 0 0 0 1.178.297 2.5 2.5 0 0 0  .109-.004 12 12 0 0 1  .391 3.004 12 12 0 0 1-3.105 8.03 2.5 2.5 0 0 0-.395-.03 2.5 2.5 0 0 0-.48.05l-3.426-5.191a2.5 2.5 0 0 0  .406-1.359 2.5 2.5 0 0 0-.064-.547l5.387-4.25zm-9.898 6.184a2.5 2.5 0 0 0 2.076 1.113 2.5 2.5 0 0 0  .426-.037h.002l3.447 5.229a2.5 2.5 0 0 0-.365 1.178 12 12 0 0 1-6.01 1.63 12 12 0 0 1-10.762-6.71 2.5 2.5 0 0 0  .627-.99l10.559-1.418z" opacity=".1"/>
  <path d="m24 10a14 14 0 0 0-14 14 14 14 0 0 0  14 14 14 14 0 0 0  14-14 14 14 0 0 0-14-14zm0 2a12 12 0 0 1 12 12 12 12 0 0 1-12 12 12 12 0 0 1-12-12 12 12 0 0 1  12-12z" fill="#f9f9f9"/>
  <circle cx="26.5" cy="25.499" fill="#f9f9f9" r="2.5"/>
  <circle cx="35.5" cy="18.499" fill="#f9f9f9" r="2.5"/>
  <circle cx="32.5" cy="34.499" fill="#f9f9f9" r="2.5"/>
  <circle cx="11.5" cy="27.499" fill="#f9f9f9" r="2.5"/>
  <path d="m34.881 17.715l-8.785 6.93-14.629 1.963.266 1.982 14.34-1.924 5.594 8.484 1.668-1.102-5.451-8.266 8.236-6.498-1.238-1.57z" fill="#f9f9f9" fill-rule="evenodd"/>
</svg>

<svg xmlns="http://www.w3.org/2000/svg" viewBox="0 0 48 48">
 <defs>
  <linearGradient id="linearGradient3764" x1="1" x2="47" gradientUnits="userSpaceOnUse" gradientTransform="matrix(0,-1,1,0,-1.5e-6,47.999998)">
   <stop style="stop-color:#24b2da;stop-opacity:1"/>
   <stop offset="1" style="stop-color:#34b8de;stop-opacity:1"/>
  </linearGradient>
 </defs>
 <g>
  
  
  
 </g>
 <g>
  <path d="m 47,24 C 47,46.703 46.703,47 24,47 1.297,47 1,46.703 1,24 1,1.297 1.297,1 24,1 46.703,1 47,1.297 47,24 z" style="fill:url(#linearGradient3764);fill-opacity:1"/>
 </g>
 <g>
  
 </g>
 <path d="M 25 11 A 14 14 0 0 0 11 25 14 14 0 0 0 11.08 26.447 2.5 2.5 0 0 0 10 28.5 2.5 2.5 0 0 0 12.365 30.992 14 14 0 0 0 25 39 14 14 0 0 0 31.74 37.27 2.5 2.5 0 0 0 33.5 38 2.5 2.5 0 0 0 36 35.5 2.5 2.5 0 0 0 35.592 34.13 14 14 0 0 0 39 25 14 14 0 0 0 38.432 21.08 2.5 2.5 0 0 0 39 19.5 2.5 2.5 0 0 0 36.5 17 2.5 2.5 0 0 0 36.482 17 14 14 0 0 0 25 11 m 0 2 A 12 12 0 0 1 34.623 17.852 2.5 2.5 0 0 0 34 19.5 a 2.5 2.5 0 0 0 0.084 0.633 l -5.332 4.205 A 2.5 2.5 0 0 0 27.5 24 2.5 2.5 0 0 0 25.07 25.916 L 14.695 27.309 A 2.5 2.5 0 0 0 13.05 26.06 12 12 0 0 1 13 25 12 12 0 0 1 25 13 m 10.322 8.703 A 2.5 2.5 0 0 0 36.5 22 2.5 2.5 0 0 0 36.609 21.996 12 12 0 0 1 37 25 12 12 0 0 1 33.895 33.03 2.5 2.5 0 0 0 33.5 33 2.5 2.5 0 0 0 33.02 33.05 L 29.594 27.859 A 2.5 2.5 0 0 0 30 26.5 2.5 2.5 0 0 0 29.936 25.953 l 5.387 -4.25 z m -9.898 6.184 A 2.5 2.5 0 0 0 27.5 29 2.5 2.5 0 0 0 27.926 28.963 l 0.002 0 3.447 5.229 A 2.5 2.5 0 0 0 31.01 35.37 12 12 0 0 1 25 37 12 12 0 0 1 14.238 30.29 2.5 2.5 0 0 0 14.865 29.3 l 10.559 -1.418 z" style="fill:#000;opacity:0.1;fill-opacity:1;stroke:none"/>
 <g>
  <path d="m 24 10 a 14 14 0 0 0 -14 14 A 14 14 0 0 0 24 38 14 14 0 0 0 38 24 a 14 14 0 0 0 -14 -14 z m 0 2 a 12 12 0 0 1 12 12 A 12 12 0 0 1 24 36 12 12 0 0 1 12 24 a 12 12 0 0 1 12 -12 z" style="fill:#f9f9f9;fill-opacity:1;stroke:none"/>
  <circle r="2.5" cy="25.499" cx="26.5" style="fill:#f9f9f9;opacity:1;fill-opacity:1;stroke:none"/>
  <circle r="2.5" cy="18.499" cx="35.5" style="fill:#f9f9f9;opacity:1;fill-opacity:1;stroke:none"/>
  <circle r="2.5" cy="34.499" cx="32.5" style="fill:#f9f9f9;opacity:1;fill-opacity:1;stroke:none"/>
  <circle r="2.5" cy="27.499" cx="11.5" style="fill:#f9f9f9;opacity:1;fill-opacity:1;stroke:none"/>
  <path d="m 34.881 17.715 -8.785 6.93 -14.629 1.963 0.266 1.982 14.34 -1.924 5.594 8.484 1.668 -1.102 -5.451 -8.266 8.236 -6.498 -1.238 -1.57 z" mix-blend-mode="normal" isolation="auto" white-space="normal" solid-opacity="1" solid-color="#000000" style="visibility:visible;shape-rendering:auto;color-interpolation-filters:linearRGB;fill:#f9f9f9;opacity:1;image-rendering:auto;fill-opacity:1;stroke:none;display:inline;color:#000;fill-rule:evenodd;color-rendering:auto;color-interpolation:sRGB"/>
 </g>
</svg>
